vsi/mute_dark.svg

<svg viewBox="0 0 16 16" fill="none" xmlns="http://www.w3.org/2000/svg" height="1em" width="1em">
  <path fill-rule="evenodd" clip-rule="evenodd" d="M1.49976 5.00004H4.28976L8.14976 1.17004L8.99976 1.52004V14.52L8.14976 14.85L4.28976 11H1.49976L0.999756 10.5V5.50004L1.49976 5.00004ZM4.84976 10.17L7.99976 13.31V2.73004L4.84976 5.85004L4.49976 6.00004H1.99976V10H4.49976L4.84976 10.17ZM14.2312 6.06152L14.9383 6.76861L13.2068 8.50006L14.9383 10.2315L14.2312 10.9386L12.4997 9.20716L10.7683 10.9386L10.0612 10.2315L11.7926 8.50007L10.0612 6.76864L10.7683 6.06153L12.4998 7.79297L14.2312 6.06152Z" fill="#C5C5C5"/>
</svg>

<svg viewBox="0 0 16 16" fill="none" xmlns="http://www.w3.org/2000/svg" height="1em" width="1em">
  <path fill-rule="evenodd" clip-rule="evenodd" d="M1.5 5h2.79l3.86-3.83.85.35v13l-.85.33L4.29 11H1.5l-.5-.5v-5l.5-.5Zm3.35 5.17L8 13.31V2.73L4.85 5.85 4.5 6H2v4h2.5l.35.17Zm9.381-4.108.707.707L13.207 8.5l1.731 1.732-.707.707L12.5 9.207l-1.732 1.732-.707-.707L11.793 8.5 10.06 6.77l.707-.707 1.733 1.73 1.731-1.731Z" fill="#C5C5C5"/>
</svg>
